assets/icons/standard/list_email.svg

<?xml version="1.0"?><svg xmlns="http://www.w3.org/2000/svg" width="100" height="100" viewBox="0 0 100 100"><path fill="#fff" d="m64.9 34.9h-34.6c-2.7 0-4.8 2.2-4.8 4.8v0.8c0 0.4 0.4 0.8 0.8 0.8h32.1c2.7 0 4.8 2.2 4.8 4.8v23c0 0.4 0.4 0.8 0.8 0.8h0.8c2.7 0 4.8-2.2 4.8-4.8v-25.4c0.1-2.6-2.1-4.8-4.7-4.8z m10.4-10.3h-34.6c-2.7 0-4.8 2.2-4.8 4.8v0.8c0 0.4 0.4 0.8 0.8 0.8h32.1c2.7 0 4.8 2.2 4.8 4.8v23c0 0.4 0.4 0.8 0.8 0.8h0.8c2.7 0 4.8-2.2 4.8-4.8v-25.4c0.1-2.6-2.1-4.8-4.7-4.8z m-36.8 39.6c0.5 0.5 1.2 0.5 1.7 0l18.3-17c0.3-0.6 0.2-1.7-1.1-1.7l-36.1 0.1c-1 0-1.8 0.9-1.1 1.7l18.3 16.9z m20.3-10.4c0-0.8-1-1.3-1.6-0.7l-14.3 13.2c-1 0.9-2.2 1.4-3.5 1.4-1.3 0-2.5-0.5-3.5-1.3l-14.2-13.3c-0.6-0.6-1.6-0.2-1.6 0.7-0.1-0.2-0.1 18.4-0.1 18.4 0 1.8 1.5 3.2 3.2 3.2h32.3c1.8 0 3.2-1.5 3.2-3.2v-18.4z"></path></svg>

<svg xmlns="http://www.w3.org/2000/svg" x="0px" y="0px"
	 width="100px" height="100px" viewBox="0 0 100 100" enable-background="new 0 0 100 100" xml:space="preserve">
<path fill="#FFFFFF" d="M64.9,34.9H30.3c-2.7,0-4.8,2.2-4.8,4.8v0.8c0,0.4,0.4,0.8,0.8,0.8h32.1c2.7,0,4.8,2.2,4.8,4.8v23
	c0,0.4,0.4,0.8,0.8,0.8h0.8c2.7,0,4.8-2.2,4.8-4.8V39.7C69.7,37.1,67.5,34.9,64.9,34.9z"/>
<path fill="#FFFFFF" d="M75.3,24.6H40.7c-2.7,0-4.8,2.2-4.8,4.8v0.8c0,0.4,0.4,0.8,0.8,0.8h32.1c2.7,0,4.8,2.2,4.8,4.8v23
	c0,0.4,0.4,0.8,0.8,0.8h0.8c2.7,0,4.8-2.2,4.8-4.8V29.4C80.1,26.8,77.9,24.6,75.3,24.6z"/>
<g>
	<path fill="#FFFFFF" d="M38.5,64.2c0.5,0.5,1.2,0.5,1.7,0l18.3-17c0.3-0.6,0.2-1.7-1.1-1.7l-36.1,0.1c-1,0-1.8,0.9-1.1,1.7
		L38.5,64.2z M58.8,53.8c0-0.8-1-1.3-1.6-0.7L42.9,66.3c-1,0.9-2.2,1.4-3.5,1.4c-1.3,0-2.5-0.5-3.5-1.3L21.7,53.1
		c-0.6-0.6-1.6-0.2-1.6,0.7C20,53.6,20,72.2,20,72.2c0,1.8,1.5,3.2,3.2,3.2h32.3c1.8,0,3.2-1.5,3.2-3.2V53.8z"/>
</g>
</svg>
